src/Pure/16/symbolic/actions/format-text-direction-symbolic.svg

<svg width="16" height="16" version="1.1" xmlns="http://www.w3.org/2000/svg">
 <path d="m2 1v1h6c1.108 0 2 0.892 2 2v1h-6c-1.662 0-3 1.338-3 3s1.338 3 3 3h7v-7c0-1.662-1.338-3-3-3zm2 5h6v4h-6c-1.108 0-2-0.892-2-2s0.892-2 2-2z" fill="#363636"/>
 <path d="m12 10v2h-11v1h11v2l3-2.5z" fill="#363636" overflow="visible"/>
</svg>

<?xml version="1.0" encoding="UTF-8" standalone="no"?>
<svg
   width="16"
   height="16"
   version="1.1"
   id="svg2"
   sodipodi:docname="format-text-direction-symbolic.svg"
   inkscape:version="1.4.2 (ebf0e940d0, 2025-05-08)"
   xmlns:inkscape="http://www.inkscape.org/namespaces/inkscape"
   xmlns:sodipodi="http://sodipodi.sourceforge.net/DTD/sodipodi-0.dtd"
   xmlns="http://www.w3.org/2000/svg"
   xmlns:svg="http://www.w3.org/2000/svg">
  <defs
      id="defs2">
      <style
          id="current-color-scheme"
          type="text/css">
          .ColorScheme-Text { color:#363636; }
      </style>
  </defs>
  <sodipodi:namedview
     id="namedview2"
     pagecolor="#ffffff"
     bordercolor="#000000"
     borderopacity="0.25"
     inkscape:showpageshadow="2"
     inkscape:pageopacity="0.0"
     inkscape:pagecheckerboard="0"
     inkscape:deskcolor="#d1d1d1"
     inkscape:zoom="49.6875"
     inkscape:cx="8"
     inkscape:cy="8"
     inkscape:window-width="1920"
     inkscape:window-height="1010"
     inkscape:window-x="0"
     inkscape:window-y="0"
     inkscape:window-maximized="1"
     inkscape:current-layer="svg2" />
  <path
     id="path1"
     style="fill:currentColor"
     class="ColorScheme-Text"
     d="M 2 1 L 2 2 L 8 2 C 9.108 2 10 2.892 10 4 L 10 5 L 4 5 C 2.338 5 1 6.338 1 8 C 1 9.662 2.338 11 4 11 L 11 11 L 11 4 C 11 2.338 9.662 1 8 1 L 2 1 z M 4 6 L 10 6 L 10 10 L 4 10 C 2.892 10 2 9.108 2 8 C 2 6.892 2.892 6 4 6 z M 12 10 L 12 12 L 1 12 L 1 13 L 12 13 L 12 15 L 15 12.5 L 12 10 z " />
</svg>
